!!!COM: Scriabin, Alexander
!!!OTL@@FR: Étude en si bémol mineur
!!!OTL@@EN: Etude in Bb Minor
!!!OPR@@FR: 12 Études
!!!OPR@@EN: 12 Etudes
!!!OPS: 8
!!!ONM: 11
!!!ODT: 1894
!!!AGN: Etude
**kern	**kern	**dynam
*staff2	*staff1	*staff1/2
*Ipiano	*Ipiano	*
*clefF4	*clefG2	*
*k[b-e-a-d-g-]	*k[b-e-a-d-g-]	*
*b-:	*b-:	*
*M3/4	*M3/4	*
=1	=1	=1
*^	*^	*
[8qBB-\	.	.	.	.
2BB-]	8FL 8f	8d-L 8b-	8.dd-L	p
.	8FJ 8f	8d-J 8b-	.	.
.	.	.	16dd-Jk	.
.	8FL 8f	8d-L 8b-	4dd-	.
.	8FJ 8f	8d-J 8b-	.	.
[8qBB-\	.	.	.	.
4BB-]	8G-L 8g-	8e-L 8b-	16ffLL	.
.	.	.	16dd-	.
.	8G-J 8g-	8e-J 8b-	24ff	.
.	.	.	24ee-	.
.	.	.	24b-JJ	.
=2	=2	=2	=2	=2
[8qBB-\	.	.	.	.
2.BB-]	8FL 8f	8d-L 8b-	[8b-L	.
.	8FJ 8f	8d-J 8b-	24b-L]	.
.	.	.	24bn	.
.	.	.	24ccJJ	.
.	8FL 8f	8d-L 8b-X	16ee-LL	.
.	.	.	[16dd-J	.
.	8FJ 8f	8d-J 8b-	8dd-J_	.
.	8FL 8f	8d-L 8b-	4dd-]	.
.	8FJ 8f	8d-J 8b-	.	.
!!LO:LB:g=original
=3	=3	=3	=3	=3
2BB-	8G-L 8g-	8b-L	16e-KL 16ee-	mf
.	.	.	8dn 8ddn	.
.	8G-J 8g-	8dJ 8b-	.	.
.	.	.	16dJk 16dd	.
.	8G-L 8g-	8b-L	16dKL 16dd	.
.	.	.	8d-X 8dd-X	.
.	8G-J 8g-	8d-J 8b-	.	.
.	.	.	16d-Jk 16dd-	.
4BB-	8G-L 8e-	8g-L	16d-KL 16dd-	.
.	.	.	8c 8cc	.
.	8G-J 8e-	8cJ 8g-	.	.
.	.	.	16cJk 16cc	.
=4	=4	=4	=4	=4
2.BB-	8G-L 8e-	8c-XL 8g-	8.cc-XL	.
.	8G-J 8e-	8c-J	.	.
.	.	.	16g-Jk	.
.	8G-L 8e-	8c-L 8g-	4.cc-	.
.	8G-J 8e-	8c-J 8g-	.	.
.	8G-L 8e-	8c-L 8g-	.	.
.	8G-J 8e-	8B-J 8g-	8b-	.
=5	=5	=5	=5	=5
8BB-L 8G-	4d-	8AnL 8e-	8.anL	.
8BB-J 8G-	.	8AJ 8e-	.	.
.	.	.	16aJk	.
8BB-L 8G-	4c-X	8AL 8e-	4a	.
8BB-J 8G-	.	8AJ 8e-	.	.
8BB-L 8G-	4B-	8B-L 8e-	4b-	.
8BB-J 8G-	.	8B-J 8e-	.	.
!!LO:LB:g=original
=6	=6	=6	=6	=6
8BB-L 8B-	8.G-L	8B-L	8.e-L	.
8BB-J 8B-	.	8B-J	.	.
.	16FJk	.	16fJk	.
8BB-L 8B-	2E-	8G-L 8e-	2g-	.
8BB-J 8B-	.	8G-J 8e-	.	.
8BB-L 8B-	.	8G-L 8e-	.	.
8BB-J 8B-	.	8G-J 8e-	.	.
=7	=7	=7	=7	=7
4BB-	8BB-L 8B-	8d-L	16G-KL 16g-	.
.	.	.	8F 8f	.
.	8BB-J 8B-	8FJ 8d-	.	.
.	.	.	16FJk 16f	.
4EE-	8BB-L 8B-	8d-L	16A-KL 16a-	.
.	.	.	8G- 8g-	.
.	8BB-J 8B-	8G-J 8d-	.	.
.	.	.	16G-Jk 16g-	.
4GG-	8CL 8B-	8cL	16FKL 16f	.
.	.	.	8En 8en	.
.	8CJ 8B-	8EJ 8c	.	.
.	.	.	16EJk 16e	.
=8	=8	=8	=8	=8
4FF	8CL 8B-	8FL 8c	8.fL	.
.	8CJ 8B-	8cJ	.	.
.	.	.	16fJk	.
4r	8FL 8An	4c	4f	.
.	8FJ 8f	.	.	.
*	*	*v	*v	*
4r	8FL 8f	4r	.
.	8FJ 8f	.	.
!!LO:LB:g=original
=9	=9	=9	=9
*	*	*^	*
[8qBB-\	.	.	.	.
2BB-]	8FL 8f	8d-L 8b-	8.dd-L	.
.	8FJ 8f	8d-J 8b-	.	.
.	.	.	16dd-Jk	.
.	8FL 8f	8d-L 8b-	4dd-	.
.	8FJ 8f	8d-J 8b-	.	.
[8qBB-\	.	.	.	.
4BB-]	8G-L 8g-	8e-L 8b-	16ffLL	.
.	.	.	16dd-	.
.	8G-J 8g-	8e-J 8b-	24ff	.
.	.	.	24ee-	.
.	.	.	24b-JJ	.
=10	=10	=10	=10	=10
[8qBB-\	.	.	.	.
4BB-]	8FL 8f	8d-L	[8b-L	.
.	8B-J 8f	8d-J	24b-L]	.
.	.	.	24bn	.
.	.	.	24ccJJ	.
2E-	8B-L 8g-	8d-L 8b-X	2dd-	.
.	8B-J 8g-	8d-J 8b-	.	.
.	8B-L 8g-	8d-L 8b-	.	.
.	8B-J 8g-	8d-J 8b-	.	.
*v	*v	*	*	*
!!LO:LB:g=original
=11	=11	=11	=11
8EnL 8B- 8g-	8b-L	16d-KL 16dd-	.
.	.	8c 8cc	.
8EEnJ 8D-	8cJ 8g-	.	.
.	.	16cJk 16cc	.
8D-L 8G-	8g-L	16cKL 16cc	.
.	.	8B- 8b-	.
8EJ 8d-	8B-J 8g-	.	.
.	.	16B-Jk 16b-	.
8FL 8d-	8fL	16B-KL 16b-	.
.	.	8An 8an	.
8FFJ 8D-	8AJ 8f	.	.
.	.	16B-Jk 16b-	.
=12	=12	=12	=12
8G-L 8d-	8enL	16d-KL 16dd-	.
.	.	8c 8cc	.
8GG-J 8En	8cJ 8e	.	.
.	.	16cJk 16cc	.
8EL 8d-	8eL	16cKL 16cc	.
.	.	8B- 8b-	.
8D-J 8B-	8B-J 8e	.	.
.	.	16B-Jk 16b-	.
8E-XL 8d-	8e-XL	16B-LL 16b-	.
.	.	16An 16an	.
8GGnJ 8E-	8e-J	16c 16cc	.
.	.	16B-JJ 16b-	.
!!LO:LB:g=original
=13	=13	=13	=13
*^	*	*	*
12FL	4F	8d-L	16B-KL 16b-	.
.	.	.	8B-- 8b--	.
12AA-	.	.	.	.
.	.	8B--J 8d-	.	.
12AAA-J	.	.	.	.
.	.	.	16B--Jk 16b--	.
12FL	4F	8d-L	16B--KL 16b--	.
.	.	.	8A- 8a-	.
12AA-	.	.	.	.
.	.	8A-J 8d-	.	.
12AAA-J	.	.	.	.
.	.	.	16A-Jk 16a-	.
12F-L	4F-X	8d-L	16A-KL 16a-	.
.	.	.	8Gn 8gn	.
12AA-	.	.	.	.
.	.	8GJ 8d-	.	.
12AAA-J	.	.	.	.
.	.	.	16GJk 16g	.
=14	=14	=14	=14	=14
12E-L	4E-	8d-L	16GnKL 16gn	.
.	.	.	8G-X 8g-X	.
12AA-	.	.	.	.
.	.	8G-J 8d-	.	.
12AAA-J	.	.	.	.
.	.	.	16G-Jk 16g-	.
8r	[4A-	8cL	16G-KL 16g-	.
.	.	.	8F 8f	.
8AA-	.	8FJ 8c	.	.
.	.	.	16FJk 16f	.
8AA-L	4A-]	8cL	16FKL 16f	.
.	.	.	8En 8en	.
8AA-J	.	8cJ	.	.
.	.	.	16A-Jk	.
!!LO:LB:g=original
=15	=15	=15	=15	=15
8DD- 8AA-	16r	8G-L 8c	[4f	mf
.	[16A-	.	.	.
24CLL	8A-_	8G-J 8c	.	.
24.BB-	.	.	.	.
48AA-JJk	.	.	.	.
4.AA-	2A-]	8G-L 8c	16fLL]	.
.	.	.	16g-	.
.	.	8G-J 8c	16en	.
.	.	.	16fJJ	.
.	.	8G-L 8c	8a-L	.
8AA-	.	8G-J	8A-J	.
*v	*v	*	*	*
=16	=16	=16	=16
4DD- 4AA-	8FL 8A-	24d-LL	>
.	.	24e-	.
.	.	24d-	.
.	8FJ 8A-	24c	.
.	.	24d-	.
.	.	24e-JJ	.
16AAAn 16AAn	16Gn 16c#X	16en	pp
16AALL	16cc#XLL	16aanLL	ppp
16En	16bn	16ggn	.
16c#XJJ	16gnJJ	16ff#XJJ	.
8gn	8an	16ff#LL	.
.	.	16eenJJ	.
8BB--	8G 8d-	16e-XLL	.
.	.	16enJJ	.
!!LO:LB:g=original
=17	=17	=17	=17
*^	*	*	*
8AAA- 8AA-	16r	8A-L 8c	[4f	.
.	[16A-	.	.	.
24CLL	8A-_	8G-XJ 8c	.	.
24.BB-	.	.	.	.
48AA-JJk	.	.	.	.
4.AA-	2A-]	8G-L 8c	16fLL]	.
.	.	.	16g-	.
.	.	8G-J 8c	16en	.
.	.	.	16fJJ	.
.	.	8G-L 8c	8a-L	.
8AA-	.	8G-J	8A-J	.
*v	*v	*	*	*
=18	=18	=18	=18
4DD- 4AA-	8FL 8A-	24d-LL	.
.	.	24e-	.
.	.	24d-	.
.	8FJ 8A-	24c	>
.	.	24d-	.
.	.	24e-JJ	.
16AAAn 16AAn	16Gn 16c#X	16en	pp
16AALL	16cc#XLL	16bbnLL	ppp
16En	16bn	16ggn	.
16c#XJJ	16gnJJ	16ff#XJJ	.
8gn	8b	16ff#LL	.
.	.	16eenJJ	.
8AA	8An 8c#	16eLL	.
.	.	16e#XJJ	.
*	*v	*v	*
*kcancel	*kcancel	*
!!LO:LB:g=original
=19||	=19||	=19||
*k[f#c#g#d#]	*k[f#c#g#d#]	*
*	*^	*
8.DnL	8AL 8dn	[4f#	.
.	8AJ 8d	.	.
16DJk	.	.	.
4Cn	8AL 8e	16f#LL]	.
.	.	16gn	.
.	8AJ 8en	16e#X	<
.	.	16f#XJJ	.
4BB	8AL 8d#X	8bL	.
.	8AJ	8BJ	.
=20	=20	=20	=20
4E	8G#L 8B	24eLL	.
.	.	24f#	.
.	.	24e	.
.	8G#J 8B	24d#	.
.	.	24e	.
.	.	24f#JJ	.
8DnL	8BL 8f#	2g#	.
8G#J	8BJ 8f#	.	.
8DL	8BL 8e#X	.	.
8C#J	8BJ 8e#	.	.
*	*v	*v	*
*kcancel	*kcancel	*
!!LO:LB:g=original
=21||	=21||	=21||
*k[b-e-a-d-g-]	*k[b-e-a-d-g-]	*
*	*^	*
8.G-L	8d-L 8g-	[4b-	.
.	8d-J 8g-	.	.
16G-Jk	.	.	.
4F-X	8d-L 8a-	16b-LL]	<
.	.	16cc-X	.
.	8d-J 8a-X	16an	.
.	.	16a-XJJ	.
4E-	8d-L	8gnL 8ee-	.
.	8d-J	8e-J	.
=22	=22	=22	=22
4A-	8cL 8e-	24a-LL	f
.	.	24b-	.
.	.	24a-	.
.	8cJ 8e-	24gn	.
.	.	24a-	.
.	.	24b-JJ	.
4Gn	8cL 8en 8b-	2cc	>
.	8c 8e 8b-	.	.
8G-X\L	8c 8e 8b-	.	.
8GG-J 8C	8B-J 8e	.	.
=23	=23	=23	=23
*^	*	*	*
8FF 8C	16r	8AnL 8f	[4cc	pp
.	[16c	.	.	.
24FLL	8c_	8AJ 8f	.	.
24.Dn	.	.	.	.
48CJJk	.	.	.	.
4C	4c]	8AL 8f	16ccLL]	.
.	.	.	16ddn	.
.	.	8AJ 8f	16bn	.
.	.	.	16ccJJ	.
*v	*v	*	*	*
4An 4c 4an	4f	16ffLL	.
.	.	16dd	.
.	.	24cc	.
.	.	24f	.
.	.	24AJJ	.
!!LO:LB:g=original
=24	=24	=24	=24
16FFLL	8B-L 8e-	4cc	.
16C	.	.	.
24G-	8B-J 8e-	.	.
24en	.	.	.
24b-JJ	.	.	.
8b-	8ra	8ra	.
8r	8e- 8b-	8cc	.
4G-	8e-L 8b-	8dd-L	.
.	8e-J 8b-	8ccJ	.
=25	=25	=25	=25
*^	*	*	*
8FF 8C	16r	8AnL 8f	[4cc	.
.	[16c	.	.	.
24FLL	8c_	8AJ 8f	.	.
24.Dn	.	.	.	.
48CJJk	.	.	.	.
4C	4c]	8AL 8f	16ccLL]	.
.	.	.	16ddn	.
.	.	8AJ 8f	16bn	.
.	.	.	16ccJJ	.
*v	*v	*	*	*
4An 4c 4an	4f	16ffLL	.
.	.	16dd	.
.	.	24cc	.
.	.	24f	.
.	.	24AJJ	.
=26	=26	=26	=26
16FFLL	8B-L 8en	4cc	.
16C	.	.	.
24G-	8B-J 8e	.	.
24en	.	.	.
24b-JJ	.	.	.
*	*v	*v	*
4b-	8r	.
.	8e-X 8b- 8cc	<
4G-	8e-L 8b- 8dd-	.
.	8e-J 8b- 8cc	.
!!LO:LB:g=original
=27	=27	=27
*	*^	*
16FFLL	8B-L 8e-X	4cc	.
16C	.	.	.
24G-	8B-J 8e-	.	.
24e-X	.	.	.
24b-JJ	.	.	.
*	*v	*v	*
4b-	8r	.
.	8e- 8b- 8cc	.
4G-	8e-L 8b- 8dd-	.
.	8e-J 8b- 8cc	.
=28	=28	=28
4F	8e-L 8an 8gg-	.
.	8fJ 8a 8ff	.
4c	8g-L 8b- 8een	.
.	8g-J 8b- 8ee-X	.
12d-L	8g-L 8b- 8dd-/	<
12e-	.	.
.	8g-J 8b- 8cc	.
12enJ	.	.
=29	=29	=29
*^	*^	*
16fLL	4f	8d-L 8b-	8.dd-L	.
16B-	.	.	.	.
16F	.	8d-J 8b-	.	.
16BB-JJ	.	.	16dd-Jk	.
16a-LL	4a-	8d-L 8b-	4dd-	.
16B-	.	.	.	.
16F	.	8d-J 8b-	.	.
16BB-JJ	.	.	.	.
16g-LL	4g-	8d-L 8b-	16ffLL	.
16B-	.	.	16dd-	.
16E-	.	8d-J 8b-	24ff	.
.	.	.	24ee-	.
16BB-JJ	.	.	.	.
.	.	.	24b-JJ	.
!!LO:LB:g=original
=30	=30	=30	=30	=30
16fLL	4f	8d-L 8b-	[8b-L	.
16B-	.	.	.	.
16F	.	8d-J 8b-	24b-L]	.
.	.	.	24bn	.
16BB-JJ	.	.	.	.
.	.	.	24ccJJ	.
*v	*v	*	*	*
16FFLL	8d-L 8b-X	16ee-LL	.
16BBB- 16BB-	.	[16dd-J	.
16FF	8d-J 8b-	8dd-J_	.
16BB-JJ	.	.	.
16FLL	8d-L 8b-	4dd-]	.
16BB-	.	.	.
16F	8d-J 8b-	.	.
16fJJ	.	.	.
=31	=31	=31	=31
16g-LL	8b-L	16e-KL 16ee-	.
16B-	.	8dn 8ddn	.
16G-	8dJ 8b-	.	.
16BB-JJ	.	16dJk 16dd	.
16B-LL	8g-L	16dKL 16dd	.
16E-	.	8d-X 8dd-X	.
16BB-	8d-J 8g-	.	.
16EE-JJ	.	16d-Jk 16dd-	.
16G-LL	8e-L	16d-KL 16dd-	.
16BB-	.	8c 8cc	.
16EE-	8cJ 8e-	.	.
[16BBB-JJ	.	16cJk 16cc	.
=32	=32	=32	=32
16BBB-LL] 16GG-	8c-XL 8e-	8.cc-XL	.
16E-	.	.	.
16GG-	8c-J 8e-	.	.
16E-JJ	.	16g-Jk	.
16c-XLL	8e-L	4.cc-	.
16E-	.	.	.
16c-	8e-J	.	.
16g-JJ	.	.	.
4g-	8e-L	.	.
.	8B-J 8e-	8b-	.
!!LO:LB:g=original
=33	=33	=33	=33
*^	*	*	*
16d-LL	4d-	8AnL 8e-	8.anL	.
16E-	.	.	.	.
16GG-	.	8AJ 8e-	.	.
16BBB-JJ	.	.	16aJk	.
16c-XLL	4c-	8AL 8e-	4a	.
16E-	.	.	.	.
16GG-	.	8AJ 8e-	.	.
16BBB-JJ	.	.	.	.
16B-LL	4B-	8B-L 8e-	4b-	.
16E-	.	.	.	.
16GG-	.	8B-J 8e-	.	.
16BBB-JJ	.	.	.	.
=34	=34	=34	=34	=34
16G-LL	8.G-L	8B-L	8.e-L	.
16BB-	.	.	.	.
16BBB-	.	8B-J	.	.
16FJJ	16FJk	.	16fJk	.
*v	*v	*	*	*
16E-LL	8G-L 8e-	2g-	.
16BB-	.	.	.
16EE-	8G-J 8e-	.	.
16BBB-JJ	.	.	.
16EE-LL	8G-L 8e-	.	.
16BB-	.	.	.
16E-	8G-J 8e-	.	.
16B-JJ	.	.	.
=35	=35	=35	=35
12B-L	8d-L	16G-KL 16g-	.
.	.	8F 8f	.
12BB-	.	.	.
.	8FJ 8d-	.	.
12BBB-J	.	.	.
.	.	16FJk 16f	.
12B-L	8d-L	16A-KL 16a-	.
.	.	8G- 8g-	.
12BB-	.	.	.
.	8G-J 8d-	.	.
12EE-J	.	.	.
.	.	16G-Jk 16g-	.
12B-L	8cL	16FKL 16f	.
.	.	8En 8en	.
12C	.	.	.
.	8EJ 8c	.	.
12GG-J	.	.	.
.	.	16EJk 16e	.
!!LO:LB:g=original
=36	=36	=36	=36
16B-LL	8FL 8c	[4f	.
16C	.	.	.
16FF	8cJ	.	.
16CJJ	.	.	.
16AnLL	4r	8f]	.
16F	.	.	.
16Bn	.	8r	.
16cJJ	.	.	.
*	*v	*v	*
16e-LL	4r	.
16c	.	.
16d-	.	.
16enJJ	.	.
=37	=37	=37
*^	*^	*
16fLL	4f	8d-L 8b-	8.dd-L	.
16B-	.	.	.	.
16F	.	8d-J 8b-	.	.
16BB-JJ	.	.	16dd-Jk	.
16a-LL	4a-	8d-L 8b-	4dd-	.
16B-	.	.	.	.
16F	.	8d-J 8b-	.	.
16BB-JJ	.	.	.	.
16g-LL	4g-	8d-L 8b-	16ffLL	.
16B-	.	.	16dd-	.
16E-	.	8d-J 8b-	24ff	.
.	.	.	24ee-	.
16BB-JJ	.	.	.	.
.	.	.	24b-JJ	.
=38	=38	=38	=38	=38
16fLL	4f	8d-L 8b-	[8b-L	.
16B-	.	.	.	.
16F	.	8d-J 8b-	24b-L]	.
.	.	.	24bn	.
16BB-JJ	.	.	.	.
.	.	.	24ccJJ	.
16g-LL	4g-	8d-L 8b-X	2dd-	.
16B-	.	.	.	.
16E-	.	8d-J 8b-	.	.
16G-JJ	.	.	.	.
*v	*v	*	*	*
16BB-\LL	8d-L 8b-	.	.
16EE-	.	.	.
16BB-	8d-J 8b-	.	.
16B-JJ	.	.	.
!!LO:LB:g=original
=39	=39	=39	=39
16g-LL	8b-L	16d-KL 16dd-	.
16d-	.	8c 8cc	.
16En	8cJ 8g-	.	.
16G-JJ	.	16cJk 16cc	.
16D-LL	8g-L	16cKL 16cc	.
16EEn	.	8B- 8b-	.
16D-	8B-J 8g-	.	.
16d-JJ	.	16B-Jk 16b-	.
16D-LL	8fL	16B-KL 16b-	.
16FF	.	8An 8an	.
16D-	8AJ 8f	.	.
16d-JJ	.	16B-Jk 16b-	.
=40	=40	=40	=40
16enLL	8enL	16d-KL 16dd-	.
16d-	.	8c 8cc	.
16G-	8cJ 8e	.	.
16d-JJ	.	16cJk 16cc	.
16D-LL	8eL	16cKL 16cc	.
16GG-	.	8B- 8b-	.
16D-	8B-J 8e	.	.
16d-JJ	.	16B-Jk 16b-	.
16G-\LL	8eL	16B-LL 16b-	.
16D-	.	16An 16an	.
16GG-	8eJ	16c 16cc	.
16D-JJ	.	16B-JJ 16b-	.
!!LO:LB:g=original
=41	=41	=41	=41
16FF\LL	8B-L 8d-	4b-	.
16D-	.	.	.
16G-	8B-J 8d-	.	.
16FJJ	.	.	.
16CLL	8B-L 8f	4b-	.
16D-	.	.	.
16d-	8B-J 8f	.	.
16D-JJ	.	.	.
*^	*	*	*
16FLL	4F	8fL	4b-	.
16c	.	.	.	.
16d-	.	8fJ	.	.
16cJJ	.	.	.	.
=42	=42	=42	=42	=42
2.F	8d-L	8fL	8.b-L	.
.	8fJ	8d-J	.	.
.	.	.	16ccJk	.
.	8fL	8d-L 8b-	2dd-	.
.	8fJ	8d-J 8b-	.	.
.	8fL	8d-L 8b-	.	.
.	8fJ	8d-J 8b-	.	.
*v	*v	*	*	*
=43	=43	=43	=43
16FF-X\LL	8B-L	4g-	.
16D-	.	.	.
16G-	8B-J	.	.
16D-JJ	.	.	.
16CLL	8B-L	4g-	.
16D-	.	.	.
16d-	8B-J	.	.
16D-JJ	.	.	.
*^	*	*	*
16F-XLL	4F-	8B-L	4g-	.
16c	.	.	.	.
16d-	.	8B-J	.	.
16cJJ	.	.	.	.
!!LO:LB:g=original
=44	=44	=44	=44	=44
2.F-X	8d-L	8B-L	8.g-L	.
.	8d-J	8B-J	.	.
.	.	.	16a-Jk	.
.	8d-L	8B-L 8g-	2b-	.
.	8d-J	8B-J 8g-	.	.
.	8d-L	8B-L 8g-	.	.
.	8d-J	8B-J 8g-	.	.
*v	*v	*	*	*
=45	=45	=45	=45
16E- 16e-	4c-X 4g-	8.cc-XL	pp
16EE-LL	.	.	.
16C-X	.	.	.
16G-JJ	.	16dd-Jk	.
4g-	4r	4ee-	ppp
*	*v	*v	*
4r	4r	.
=46	=46	=46
2.r	2.r	.
=47	=47	=47
*	*^	*
4FF	8FL 8An 8e-	4f	.
.	8FJ 8A 8e-	.	.
4CC 4FF	8FL 8A 8e-	4f	.
.	8FJ 8A 8e-	.	.
4CC-X 4FF	8FL 8A 8e-	4f	.
.	8FJ 8A 8e-	.	.
=48	=48	=48	=48
8.BBB- 8.FF	8FL 8B- 8dn	4f	.
.	8FJ 8B- 8d	.	.
16F	.	.	.
2F	8r	4r	.
.	8B- 8d	.	.
.	8B-L 8d	4r	.
.	8B-J 8d	.	.
!!LO:LB:g=original
=49	=49	=49	=49
4CC-X 4FF	8FL 8An 8e-	4f	.
.	8FJ 8A 8e-	.	.
4CC- 4FF	8FL 8A 8e-	4f	.
.	8FJ 8A 8e-	.	.
4CC- 4FF	4F 4A 4e-	4f	.
=50	=50	=50	=50
8.BBB- 8.FF	8FL 8B- 8dn	4f	.
.	8FJ 8B- 8d	.	.
16F	.	.	.
[2F	8r	4r	.
.	8B- 8d	.	.
.	8B-L 8d	4r	.
.	16B-Jk 16d	.	.
.	16r	.	.
*	*v	*v	*
=51	=51	=51
*^	*	*
8.F]	4c-X 4e- 4f 4an	4ff 4aan 4fff	.
16F	.	.	.
[2F	4r	4r	.
.	4r	4r	.
=52	=52	=52	=52
2.F]	4B- 4dn 4f 4b-	4ff 4bb- 4fff	.
.	4r	4r	.
.	4r	4r	.
*v	*v	*	*
=53	=53	=53
4BBB- 4FF	2.r	.
4r	.	.
4r	.	.
=54	=54	=54
4BBB- 4FF	2.r	.
4r	.	.
4r	.	.
==	==	==
*-	*-	*-
!!!system-decoration: {(*)}
!!!filter: flipper -a
!!!RDF**dynam: > = dim.
!!!ENC: Bryan Jacob Bell
!!!END: November 2021 to April 2022
!!!PED: Konstantin Igumnov and Yakov Milstein
!!!PTL: A.N. Skryabin: Polnoe sobranie sochinenii dlia fortepiano (Muzgiz)
